gama.ui.shared/icons_svg/dark/views/layout.grid.svg

<svg height="25" viewBox="-886.483 -3025.285 25 25" width="25" xmlns="http://www.w3.org/2000/svg"><g fill="none"><path d="m-861.9828-3008.1097v3.5017c0 2.1116-1.7116 3.8233-3.8231 3.8233h-3.4098c-2.1115 0-3.8232-1.7117-3.8232-3.8233v-3.5017c0-2.1113 1.7117-3.8233 3.8232-3.8233h3.4098c2.1115 0 3.8231 1.712 3.8231 3.8233z" fill="#666"/><path d="m-861.9828-3008.1097v3.5017c0 2.1116-1.7116 3.8233-3.8231 3.8233h-3.4098c-2.1115 0-3.8232-1.7117-3.8232-3.8233v-3.5017c0-2.1113 1.7117-3.8233 3.8232-3.8233h3.4098c2.1115 0 3.8231 1.712 3.8231 3.8233z" stroke="#fff" stroke-linecap="round" stroke-linejoin="round" stroke-width=".25"/><path d="m-874.8214-3008.1097v3.5017c0 2.1116-1.7117 3.8233-3.8232 3.8233h-3.4098c-2.1114 0-3.8231-1.7117-3.8231-3.8233v-3.5017c0-2.1113 1.7117-3.8233 3.8231-3.8233h3.4098c2.1115 0 3.8232 1.712 3.8232 3.8233z" fill="#666"/><path d="m-874.8214-3008.1097v3.5017c0 2.1116-1.7117 3.8233-3.8232 3.8233h-3.4098c-2.1114 0-3.8231-1.7117-3.8231-3.8233v-3.5017c0-2.1113 1.7117-3.8233 3.8231-3.8233h3.4098c2.1115 0 3.8232 1.712 3.8232 3.8233z" stroke="#fff" stroke-linecap="round" stroke-linejoin="round" stroke-width=".25"/><path d="m-862.088-3020.9616v3.5018c0 2.1115-1.7117 3.8232-3.8232 3.8232h-3.4097c-2.1115 0-3.8232-1.7117-3.8232-3.8232v-3.5018c0-2.1114 1.7117-3.8231 3.8232-3.8231h3.4097c2.1115 0 3.8232 1.7117 3.8232 3.8231z" fill="#666"/><path d="m-862.088-3020.9616v3.5018c0 2.1115-1.7117 3.8232-3.8232 3.8232h-3.4097c-2.1115 0-3.8232-1.7117-3.8232-3.8232v-3.5018c0-2.1114 1.7117-3.8231 3.8232-3.8231h3.4097c2.1115 0 3.8232 1.7117 3.8232 3.8231z" stroke="#fff" stroke-linecap="round" stroke-linejoin="round" stroke-width=".25"/><path d="m-874.9267-3020.9616v3.5018c0 2.1115-1.7117 3.8232-3.8231 3.8232h-3.4098c-2.1115 0-3.8232-1.7117-3.8232-3.8232v-3.5018c0-2.1114 1.7117-3.8231 3.8232-3.8231h3.4098c2.1114 0 3.8231 1.7117 3.8231 3.8231z" fill="#666"/><path d="m-874.9267-3020.9616v3.5018c0 2.1115-1.7117 3.8232-3.8231 3.8232h-3.4098c-2.1115 0-3.8232-1.7117-3.8232-3.8232v-3.5018c0-2.1114 1.7117-3.8231 3.8232-3.8231h3.4098c2.1114 0 3.8231 1.7117 3.8231 3.8231z" stroke="#fff" stroke-linecap="round" stroke-linejoin="round" stroke-width=".25"/></g></svg>

<?xml version="1.0" encoding="UTF-8" standalone="no"?>
<!DOCTYPE svg PUBLIC "-//W3C//DTD SVG 1.1//EN" "http://www.w3.org/Graphics/SVG/1.1/DTD/svg11.dtd">
<svg xmlns="http://www.w3.org/2000/svg" xmlns:xl="http://www.w3.org/1999/xlink" version="1.1" xmlns:dc="http://purl.org/dc/elements/1.1/" viewBox="-886.4828 -3025.2847 25 25" width="25" height="25">
  <defs/>
  <g id="SOURCES" stroke-opacity="1" fill="none" stroke="none" fill-opacity="1" stroke-dasharray="none">
    <title>SOURCES</title>
    <g id="SOURCES_Dark">
      <title>Dark</title>
      <g id="Graphic_11110">
        <path d="M -861.9828 -3008.1097 L -861.9828 -3004.608 C -861.9828 -3002.4964 -863.6944 -3000.7847 -865.8059 -3000.7847 L -869.2157 -3000.7847 C -871.3272 -3000.7847 -873.0389 -3002.4964 -873.0389 -3004.608 L -873.0389 -3008.1097 C -873.0389 -3010.221 -871.3272 -3011.933 -869.2157 -3011.933 L -865.8059 -3011.933 C -863.6944 -3011.933 -861.9828 -3010.221 -861.9828 -3008.1097 Z" fill="#666"/>
        <path d="M -861.9828 -3008.1097 L -861.9828 -3004.608 C -861.9828 -3002.4964 -863.6944 -3000.7847 -865.8059 -3000.7847 L -869.2157 -3000.7847 C -871.3272 -3000.7847 -873.0389 -3002.4964 -873.0389 -3004.608 L -873.0389 -3008.1097 C -873.0389 -3010.221 -871.3272 -3011.933 -869.2157 -3011.933 L -865.8059 -3011.933 C -863.6944 -3011.933 -861.9828 -3010.221 -861.9828 -3008.1097 Z" stroke="white" stroke-linecap="round" stroke-linejoin="round" stroke-width=".25"/>
      </g>
      <g id="Graphic_11109">
        <path d="M -874.8214 -3008.1097 L -874.8214 -3004.608 C -874.8214 -3002.4964 -876.5331 -3000.7847 -878.6446 -3000.7847 L -882.0544 -3000.7847 C -884.1658 -3000.7847 -885.8775 -3002.4964 -885.8775 -3004.608 L -885.8775 -3008.1097 C -885.8775 -3010.221 -884.1658 -3011.933 -882.0544 -3011.933 L -878.6446 -3011.933 C -876.5331 -3011.933 -874.8214 -3010.221 -874.8214 -3008.1097 Z" fill="#666"/>
        <path d="M -874.8214 -3008.1097 L -874.8214 -3004.608 C -874.8214 -3002.4964 -876.5331 -3000.7847 -878.6446 -3000.7847 L -882.0544 -3000.7847 C -884.1658 -3000.7847 -885.8775 -3002.4964 -885.8775 -3004.608 L -885.8775 -3008.1097 C -885.8775 -3010.221 -884.1658 -3011.933 -882.0544 -3011.933 L -878.6446 -3011.933 C -876.5331 -3011.933 -874.8214 -3010.221 -874.8214 -3008.1097 Z" stroke="white" stroke-linecap="round" stroke-linejoin="round" stroke-width=".25"/>
      </g>
      <g id="Graphic_11107">
        <path d="M -862.088 -3020.9616 L -862.088 -3017.4598 C -862.088 -3015.3483 -863.7997 -3013.6366 -865.9112 -3013.6366 L -869.3209 -3013.6366 C -871.4324 -3013.6366 -873.1441 -3015.3483 -873.1441 -3017.4598 L -873.1441 -3020.9616 C -873.1441 -3023.073 -871.4324 -3024.7847 -869.3209 -3024.7847 L -865.9112 -3024.7847 C -863.7997 -3024.7847 -862.088 -3023.073 -862.088 -3020.9616 Z" fill="#666"/>
        <path d="M -862.088 -3020.9616 L -862.088 -3017.4598 C -862.088 -3015.3483 -863.7997 -3013.6366 -865.9112 -3013.6366 L -869.3209 -3013.6366 C -871.4324 -3013.6366 -873.1441 -3015.3483 -873.1441 -3017.4598 L -873.1441 -3020.9616 C -873.1441 -3023.073 -871.4324 -3024.7847 -869.3209 -3024.7847 L -865.9112 -3024.7847 C -863.7997 -3024.7847 -862.088 -3023.073 -862.088 -3020.9616 Z" stroke="white" stroke-linecap="round" stroke-linejoin="round" stroke-width=".25"/>
      </g>
      <g id="Graphic_11106">
        <path d="M -874.9267 -3020.9616 L -874.9267 -3017.4598 C -874.9267 -3015.3483 -876.6384 -3013.6366 -878.7498 -3013.6366 L -882.1596 -3013.6366 C -884.2711 -3013.6366 -885.9828 -3015.3483 -885.9828 -3017.4598 L -885.9828 -3020.9616 C -885.9828 -3023.073 -884.2711 -3024.7847 -882.1596 -3024.7847 L -878.7498 -3024.7847 C -876.6384 -3024.7847 -874.9267 -3023.073 -874.9267 -3020.9616 Z" fill="#666"/>
        <path d="M -874.9267 -3020.9616 L -874.9267 -3017.4598 C -874.9267 -3015.3483 -876.6384 -3013.6366 -878.7498 -3013.6366 L -882.1596 -3013.6366 C -884.2711 -3013.6366 -885.9828 -3015.3483 -885.9828 -3017.4598 L -885.9828 -3020.9616 C -885.9828 -3023.073 -884.2711 -3024.7847 -882.1596 -3024.7847 L -878.7498 -3024.7847 C -876.6384 -3024.7847 -874.9267 -3023.073 -874.9267 -3020.9616 Z" stroke="white" stroke-linecap="round" stroke-linejoin="round" stroke-width=".25"/>
      </g>
    </g>
  </g>
</svg>
